X:1
T:Il Canto Degli Italiani
T:Il Canto Degli Italiani
T:Michele Novaro
T:Goffredo Mameli
C:Michele Novaro
Z:Goffredo Mameli
L:1/8
M:4/4
K:Bb
V:1 treble nm="Piano" snm="Pno."
V:1
 BB/B/ BB/B/ BB/B/ dB | g=e f2 z4 | ff/f/ ff/f/ ff/f/ ff/f/ | gf d2 z4 | GG/G/ GG/G/ GG/G/ BG | %5
w: |||||
 e^c d2 z4 | dd/d/ dd/d/ dd/d/ dd/d/ | ed B2 z4 | A2 c>d e2 g2 | =ef/f/ fd ag/g/ g_e | %10
w: |||||
 gf/f/ fd fe/e/ ec | B2 z2 z2 F2 | (F>G) F2 z2 d2 | (d>e) d2 z2 d2 | (f>e) d4 c2 | (d>c) B2 z2 F2 | %16
w: |* Fra-|tel- * li d'I-|ta- * lia, L'I-|ta- * lia s'è|de- * sta, Del-|
 (F>G) F2 z2 d2 | (d>e) d2 z2 d2 | (f>e) d4 c2 | (d>c) B2 z2 d2 | d2 A4 (B>c) | (B>A) G2 z2 B2 | %22
w: l'el- * mo di|Sci- * pio S'è|cin- * ta la|te- * sta. Do-|v'è la Vit- *|to- * ria? Le|
 (A>B) c2 z2 D2 | d4 e2 F2 | (F>G) F2 z2 d2 | (d>e) d4 d2 | (f>e) (d2- df)(cf) | %27
w: por- * ga la|chio- ma, Ché|schia- * va di|Ro- * ma Id-|dio _ la _ _ cre- *|
 B2 z B/B/ B2 z B/B/ | B2 z B/B/ =Bc^cd |[K:Eb] e2 z3/2 G/ G2 G>F | A2 G z/ B/ B2 B>=A | %31
w: ò. * * * * *||* Fra- tel- li d'I-|ta- lia, L'I- ta- lia s'è|
 c2 B z/ B/ B2 c>d | e2 G>A c2 B>G | A2 F z/ F/ F2 F>=E | G2 F z/ A/ A2 A>G | B2 A z/ f/ f2 f>e | %36
w: de- sta, Del- l'el- mo di|Sci- pio S'è cin- ta la|te- sta. Do- v'è la Vit-|to- ria? Le por- ga la|chio- ma, Ché schia- va di|
 d2 d>c B2 B>A | G2 z3/2 G/ G2 G>F | A2 G z/ G/ G2 F>E | F2 D z/ G/ G2 G>F | A2 G z/ G/ G2 F>E | %41
w: Ro- ma Id- dio la cre-|ò. Strin- giam- ci'a co-|or- te, Siam pron- ti alla|mor- te Siam pron- ti alla|mor- te L'I- ta- lia chia-|
 D2 z3/2 G/ G2 G>F | A2 G z/ B/ B2 =A>B | d2 c z/ c/ c>d e>f | g2 g>g f2 f>f | e z e z z4 |] %46
w: mò; Strin- giam- ci'a co-|or- te, Siam pron- ti alla|mor- te Siam pron- ti al- la|mor- te L'I- ta- lia chia-|mò, sì!|

